X:1
T:Title
L:1/8
M:4/4
K:Ab
V:1 treble nm="Grand Piano"
V:1
 z4 z[Q:1/4=100] C2 C | D2 C2- CCFG | G4- G C2 C | D2 C2- CC=EG | C6 F2 | B6 AG | A6 GF | G6 =EG | %8
 C4- C C2 E | DC[K:bass] B,2- B,B,DB, | C2 C4 C2 | =E2 G2 B2 B2 | =A6 F2 | =A2 c2 e3 e | e2 d4 E2 | %15
 G2 B2 dcBc- | c6 D>D | F2 A2 c2 B2- | B2 C>C =E2 G2 | B2 A2- AAGF | G2 G2- GC=EG | G4 A4- | %22
[M:2/4] A2 F2 |[M:4/4] =A2 c2 e3 e | e2 d4 E2 | G2 B2 dcBc- | c6 D>D | F2 A2 c2 B2- | %28
 B2 C>C =E2 G2 | B2 A2- AAGF | G2 G2- GC=EG | G4 F4- | F6 z2 |] %33

